X: 6
T:Bwlch Llanberis
M:3/4
L:1/8
Q:160
C:Trad
S:Blodau'r Grug Collection Vol. 1
R:Waltz
A:Wales
Z:brian_martin12345@yahoo.com
K:D
de|f2af ef|d2A2Bc|d2af df|e4de|fg fe dc|B2A2de|f2gf ef|d4:||!
fg|a2fa gf|f2e2dc|d2fd Bd|c4de|fg fe dc|B2A2de|f2gf ef|d4:||
